X:1
T:Waltham (Monk), 66.66.66
T:Waltham (Monk), 66.66.66
T:William Henry Monk, 1889
T:Public Domain Courtesy of the Cyber Hymnal™
C:William Henry Monk, 1889
Z:Public Domain
Z:Courtesy of the Cyber Hymnal™
%%score ( 1 2 ) ( 3 4 )
L:1/8
Q:1/4=115
M:4/4
K:F
V:1 treble 
V:2 treble 
V:3 bass 
V:4 bass 
V:1
 [FA]2 | [FA]2 (GA) [FB]2 [Gc]2 | [FA]6 [Gc]2 | [Fc]2 (BA) [EB]2 [GB]2 | [FA]6 [FA]2 | %5
 [F=B]2 [Fc]2 [Fd]2 [=B,F]2 | [CE]2 G2 [FA]2 [Fc]2 | c4 z2 F2 x2 | [Ec]6 [_Ec]2 | %9
 [Dd]2 [Fd]2 [Fc]2 E2 | [DF]2 [DF]2 F2 [FB]2 | G4 z2 A2 [EG]2 | F6 |] %13
V:2
 x2 | x2 F2 x4 | x8 | x2 F2 x4 | x8 | x8 | x2 G2 x4 | G6 =B4 | x8 | x6 E2 | x4 F2 x2 | F2 E4 x4 | %12
 F6 |] %13
V:3
 [F,C]2 | [F,C]2 (B,C) [F,D]2 [E,C]2 | [F,C]6 [E,C]2 | [D,D]2 [G,D]2 [C,C]2 [E,C]2 | %4
 [F,C]6 [F,C]2 | [D,F,]2 [C,A,]2 [=B,,G,]2 [D,G,]2 | [C,G,]2 [E,C]2 [F,C]2 [A,C]2 | %7
 [G,E]4 [G,D]4 x2 | [C,C]6 [F,A,]2 | [B,,B,]2 (B,A,) [C,G,]2 [C,B,]2 | %10
 [D,A,]2 [B,,D]2 [A,,C]2 [G,,D]2 | [C,C]6 [C,B,]2 x2 | [F,,F,A,]6 |] %13
V:4
 x2 | x2 F,2 x4 | x8 | x8 | x8 | x8 | x8 | x10 | x8 | x2 B,,2 x4 | x8 | x10 | x6 |] %13

